X: 175
T:Nail That Catfish to the Tree
S:Greg Dahms
Z:added by Alf Warnock - alf0@rogers.com - www.alfwarnock.info/alfs
M:2/4
L:1/16
K:G
D2|: G2[B2G2] A2[B2G2]| [c2E2][c2E2] [B2D2][B2D2]| ABAG FED2| ABAG FED2|
G2[B2G2] A2[B2G2]| [c2E2][c2E2] [B2D2][B2D2]| ABAG DEF2| [G4B,4] [G2B,2]D2:|
|:C2C2 E2G2| [c2E2][c2E2] [B2D2][B2D2]| ABAG FED2| ABAG FEDB,|
C2C2 E2G2| [c2E2][c2E2] [B2D2][B2D2]| ABAG DEF2| [G4B,4] [G4B,4]:|
